# This example will draw heart

paper black
ink red
home

left 180
pen down


left 140
forward 130
ink red
repeat 200
	right 1
	forward 1
loop

left 120
ink yellow
repeat 200
	right 1
	forward 1
loop
forward 130
